modules/hawcons-filled/icons/icon-87-document-font.svg

<?xml version="1.0" encoding="UTF-8" standalone="no"?>
<svg width="32px" height="32px" viewBox="0 0 32 32" version="1.1" xmlns="http://www.w3.org/2000/svg" xmlns:xlink="http://www.w3.org/1999/xlink" xmlns:sketch="http://www.bohemiancoding.com/sketch/ns">
    <!-- Generator: Sketch 3.0.3 (7891) - http://www.bohemiancoding.com/sketch -->
    <title>icon 87 document font</title>
    <desc>Created with Sketch.</desc>
    <defs></defs>
    <g id="Page-1" stroke="none" stroke-width="1" fill="none" fill-rule="evenodd" sketch:type="MSPage">
        <g id="icon-87-document-font" sketch:type="MSArtboardGroup" fill="#929292">
            <path d="M22,25.5001831 C21.5821697,25.8140276 21.062803,26 20.5,26 C19.1192881,26 18,24.8807119 18,23.5 C18,22.1192881 19.1192881,21 20.5,21 C21.062803,21 21.5821697,21.1859724 22,21.4998169 L22,21 L23,21 L23,26 L22,26 L22,25.5001831 L22,25.5001831 Z M14.9285714,23 L16,26 L17,26 L14,18 L13,18 L10,26 L11,26 L11,26 L12.0714286,23 L14.9285714,23 L14.9285714,23 L14.9285714,23 Z M14.5714286,22 L13.5,19 L12.4285714,22 L14.5714286,22 L14.5714286,22 L14.5714286,22 Z M19,3 L9.0085302,3 C7.8992496,3 7,3.89833832 7,5.00732994 L7,27.9926701 C7,29.1012878 7.89092539,30 8.99742191,30 L24.0025781,30 C25.1057238,30 26,29.1090746 26,28.0025781 L26,11 L21.0059191,11 C19.8980806,11 19,10.1132936 19,9.00189865 L19,3 L19,3 Z M20,3 L20,8.99707067 C20,9.55097324 20.4509752,10 20.990778,10 L26,10 L20,3 L20,3 Z M20.5,25 C21.3284272,25 22,24.3284272 22,23.5 C22,22.6715728 21.3284272,22 20.5,22 C19.6715728,22 19,22.6715728 19,23.5 C19,24.3284272 19.6715728,25 20.5,25 L20.5,25 Z" id="document-font" sketch:type="MSShapeGroup"></path>
        </g>
    </g>
</svg>

<svg width="32" height="32" xmlns="http://www.w3.org/2000/svg"><path d="M22 25.5a2.5 2.5 0 1 1 0-4V21h1v5h-1v-.5zM14.929 23L16 26h1l-3-8h-1l-3 8h1l1.071-3h2.858zm-.358-1L13.5 19l-1.071 3h2.142zM19 3H9.009C7.899 3 7 3.898 7 5.007v22.986A2 2 0 0 0 8.997 30h15.006C25.106 30 26 29.11 26 28.003V11h-4.994A1.997 1.997 0 0 1 19 9.002V3zm1 0v5.997c0 .554.451 1.003.99 1.003H26l-6-7zm.5 22a1.5 1.5 0 1 0 0-3 1.5 1.5 0 0 0 0 3z" fill="#929292" fill-rule="evenodd"/></svg>
